newicons/emoji_cocktail_glass.svg

<?xml version="1.0" encoding="UTF-8" standalone="no"?>
<svg
   version="1.2"
   viewBox="0 0 48 48"
   id="svg7"
   xmlns="http://www.w3.org/2000/svg"
   xmlns:svg="http://www.w3.org/2000/svg">
  <defs
     id="defs1" />
  <path
     d="M 38.670543,9.6111114 31.335271,19.301587 24,28.992064 16.664729,19.301587 9.4694142,9.7960527"
     fill="none"
     stroke="#ffffff"
     stroke-linecap="round"
     stroke-linejoin="round"
     stroke-width="1"
     id="path1" />
  <path
     d="m 24.637347,14.935411 h 9.730619"
     fill="none"
     stroke="#ffffff"
     stroke-linecap="round"
     stroke-linejoin="round"
     stroke-width="1"
     id="path2" />
  <path
     d="M 13.463323,14.935411 H 24.637347"
     fill="none"
     stroke="#ffffff"
     stroke-linecap="round"
     stroke-linejoin="round"
     stroke-width="1"
     id="path3" />
  <path
     d="M 24,28.992064 V 42.5"
     fill="none"
     stroke="#ffffff"
     stroke-linecap="round"
     stroke-linejoin="round"
     stroke-width="1"
     id="path4" />
  <path
     d="M 14.610852,42.5 H 33.389147"
     fill="none"
     stroke="#ffffff"
     stroke-linecap="round"
     stroke-linejoin="round"
     stroke-width="1"
     id="path5" />
  <path
     d="M 9.4694142,9.7960527 9.3294572,9.6111114"
     fill="none"
     stroke="#ffffff"
     stroke-linecap="round"
     stroke-linejoin="round"
     stroke-width="1"
     id="path6" />
  <path
     d="M 25.760465,16.65873 35.149612,5.5000004"
     fill="none"
     stroke="#ffffff"
     stroke-linecap="round"
     stroke-linejoin="round"
     stroke-width="1"
     id="path7" />
</svg>

<?xml version="1.0" encoding="UTF-8"?><svg id="a" xmlns="http://www.w3.org/2000/svg" viewBox="0 0 48 48"><defs><style>.i{fill:none;stroke:#fff;stroke-linecap:round;stroke-linejoin:round;}</style></defs><path id="b" class="i" d="M38.6705,9.6111l-7.3353,9.6905-7.3353,9.6905-7.3353-9.6905-7.1953-9.5055"/><path id="c" class="i" d="M24.6373,14.9354h9.7306"/><path id="d" class="i" d="M13.4633,14.9354h11.174"/><path id="e" class="i" d="M24,28.9921v13.5079"/><path id="f" class="i" d="M14.6109,42.5h18.7783"/><path id="g" class="i" d="M9.4694,9.7961l-.14-.1849"/><path id="h" class="i" d="M25.7605,16.6587l9.3891-11.1587"/></svg>
